X: 23
M:6/8
L:1/8
K:G
|:d|gfg efg|fdB B3|gfg efg|afd d2 f|
gfe agf|gfe edc|cBA BGE|G>AG G2:||

